Sources/FrostedUI/Resources/Icons.xcassets/profileCircle20.imageset/profile-circle-20.svg

<svg width="20" height="20" viewBox="0 0 20 20" fill="none" xmlns="http://www.w3.org/2000/svg" data-fui-icon="true">
  <path
    d="M10 1C14.9706 1 19 5.02944 19 10C19 12.7095 17.8007 15.1371 15.9062 16.7871C15.8958 16.7973 15.8861 16.8088 15.875 16.8184C15.8492 16.8406 15.8219 16.8609 15.7959 16.8828C15.7482 16.9231 15.7 16.9627 15.6514 17.002C15.5931 17.049 15.534 17.095 15.4746 17.1406C15.422 17.181 15.3689 17.2205 15.3154 17.2598C15.2582 17.3017 15.2008 17.3432 15.1426 17.3838C15.0923 17.4189 15.0422 17.4542 14.9912 17.4883C14.924 17.5331 14.8556 17.576 14.7871 17.6191C14.7332 17.6531 14.6797 17.6879 14.625 17.7207C14.559 17.7603 14.4919 17.798 14.4248 17.8359C14.376 17.8636 14.3277 17.8922 14.2783 17.9189C14.1963 17.9633 14.1128 18.005 14.0293 18.0469C13.9059 18.1088 13.7808 18.1673 13.6543 18.2236C13.6181 18.2397 13.5823 18.2568 13.5459 18.2725C13.4778 18.3017 13.4088 18.3289 13.3398 18.3564C13.2745 18.3826 13.2096 18.4099 13.1436 18.4346C13.0806 18.458 13.0167 18.4789 12.9531 18.501C12.8869 18.524 12.8209 18.5478 12.7539 18.5693C12.6841 18.5918 12.6135 18.6121 12.543 18.6328C12.4771 18.6522 12.4112 18.6716 12.3447 18.6895C12.2773 18.7076 12.2096 18.7246 12.1416 18.7412C12.069 18.7589 11.9961 18.776 11.9229 18.792C11.8606 18.8056 11.7981 18.8188 11.7354 18.8311C11.6557 18.8466 11.5755 18.8606 11.4951 18.874C11.4309 18.8848 11.3665 18.8949 11.3018 18.9043C11.2152 18.9168 11.1283 18.9274 11.041 18.9375C10.989 18.9435 10.937 18.95 10.8848 18.9551C10.7866 18.9647 10.688 18.9721 10.5889 18.9785C10.5385 18.9818 10.4881 18.9859 10.4375 18.9883C10.2925 18.9952 10.1467 19 10 19C9.85298 19 9.70683 18.9953 9.56152 18.9883C9.51092 18.9859 9.46053 18.9818 9.41016 18.9785C9.31107 18.9721 9.21245 18.9647 9.11426 18.9551C9.062 18.95 9.01 18.9435 8.95801 18.9375C8.87072 18.9274 8.78378 18.9169 8.69727 18.9043C8.63257 18.8949 8.56815 18.8848 8.50391 18.874C8.42348 18.8606 8.34336 18.8466 8.26367 18.8311C8.2009 18.8188 8.13847 18.8056 8.07617 18.792C8.00289 18.776 7.93003 18.759 7.85742 18.7412C7.78942 18.7246 7.72168 18.7076 7.6543 18.6895C7.58783 18.6715 7.52191 18.6522 7.45605 18.6328C7.3855 18.6121 7.31494 18.5918 7.24512 18.5693C7.17818 18.5478 7.11215 18.524 7.0459 18.501C6.98231 18.4789 6.9184 18.458 6.85547 18.4346C6.7894 18.4099 6.7245 18.3826 6.65918 18.3564C6.59022 18.3289 6.52123 18.3017 6.45312 18.2725C6.41668 18.2568 6.38092 18.2397 6.34473 18.2236C6.21821 18.1673 6.09308 18.1088 5.96973 18.0469C5.88622 18.005 5.8027 17.9633 5.7207 17.9189C5.68454 17.8994 5.64914 17.8785 5.61328 17.8584C5.52894 17.8112 5.44494 17.7636 5.3623 17.7139C5.31795 17.6871 5.27432 17.6593 5.23047 17.6318C5.15495 17.5846 5.07985 17.5367 5.00586 17.4873C4.96245 17.4583 4.91983 17.4282 4.87695 17.3984C4.80691 17.3499 4.73752 17.3005 4.66895 17.25C4.62327 17.2164 4.57822 17.1819 4.5332 17.1475C4.47077 17.0996 4.40878 17.0514 4.34766 17.002C4.29908 16.9627 4.25086 16.9231 4.20312 16.8828C4.17731 16.8611 4.15056 16.8404 4.125 16.8184C4.11375 16.8087 4.10336 16.7974 4.09277 16.7871C2.19865 15.1371 1 12.7093 1 10C1 5.02944 5.02944 1 10 1ZM10 15C8.4667 15 7.04204 15.4597 5.85449 16.249C5.9416 16.3069 6.02953 16.3637 6.11914 16.418C6.34988 16.5578 6.58884 16.685 6.83496 16.7998C7.05651 16.9031 7.28392 16.9955 7.5166 17.0771C7.58393 17.1008 7.65154 17.1238 7.71973 17.1455C7.76286 17.1593 7.80615 17.1726 7.84961 17.1855C7.92365 17.2077 7.99825 17.2282 8.07324 17.248C8.11061 17.258 8.14795 17.268 8.18555 17.2773C8.25899 17.2956 8.33295 17.3121 8.40723 17.3281C8.4582 17.3392 8.50919 17.3504 8.56055 17.3604C8.61956 17.3718 8.67878 17.3825 8.73828 17.3926C8.79538 17.4023 8.85262 17.4115 8.91016 17.4199C8.99789 17.4327 9.08611 17.4434 9.1748 17.4531C9.19923 17.4558 9.22355 17.4595 9.24805 17.4619C9.34805 17.4719 9.44868 17.4784 9.5498 17.4844C9.57552 17.4859 9.60117 17.489 9.62695 17.4902C9.75054 17.4963 9.87489 17.5 10 17.5C10.1509 17.5 10.3006 17.4932 10.4492 17.4844C10.5503 17.4784 10.651 17.4718 10.751 17.4619C10.7755 17.4595 10.7998 17.4558 10.8242 17.4531C10.9129 17.4434 11.0011 17.4327 11.0889 17.4199C11.1464 17.4116 11.2036 17.4022 11.2607 17.3926C11.3202 17.3825 11.3795 17.3718 11.4385 17.3604C11.4898 17.3504 11.5408 17.3391 11.5918 17.3281C11.6661 17.3121 11.74 17.2956 11.8135 17.2773C11.8511 17.268 11.8884 17.2579 11.9258 17.248C12.0008 17.2282 12.0754 17.2077 12.1494 17.1855C12.1929 17.1726 12.2362 17.1593 12.2793 17.1455C12.3475 17.1238 12.4151 17.1008 12.4824 17.0771C12.7151 16.9955 12.9425 16.9031 13.1641 16.7998C13.4063 16.6869 13.6418 16.5621 13.8691 16.4248C13.9625 16.3685 14.0539 16.3093 14.1445 16.249C12.9571 15.46 11.533 15 10 15ZM10 2.5C5.85786 2.5 2.5 5.85786 2.5 10C2.5 12.0492 3.32224 13.9061 4.6543 15.2598C6.14901 14.1546 7.99872 13.5 10 13.5C12.0007 13.5 13.8493 14.1551 15.3438 15.2598C16.6764 13.906 17.5 12.0497 17.5 10C17.5 5.85786 14.1421 2.5 10 2.5ZM10 5.5C11.933 5.5 13.5 7.067 13.5 9C13.5 10.933 11.933 12.5 10 12.5C8.067 12.5 6.5 10.933 6.5 9C6.5 7.067 8.067 5.5 10 5.5ZM10 7C8.89543 7 8 7.89543 8 9C8 10.1046 8.89543 11 10 11C11.1046 11 12 10.1046 12 9C12 7.89543 11.1046 7 10 7Z"
    fill="currentColor"
  />
</svg>

<svg xmlns="http://www.w3.org/2000/svg" width="20" height="20" fill="none" data-fui-icon="true" viewBox="0 0 20 20"><path fill="currentColor" d="M10 1a9 9 0 0 1 9 9c0 2.71-1.2 5.137-3.094 6.787q-.015.016-.031.031-.04.033-.08.065a9 9 0 0 1-.652.5q-.075.054-.152.105-.1.067-.204.131-.08.052-.162.102-.1.059-.2.115-.073.042-.147.083-.123.066-.249.128a9 9 0 0 1-.375.177l-.108.049q-.102.043-.206.083-.098.041-.196.079-.095.034-.19.066-.1.035-.2.068-.105.034-.211.064a9 9 0 0 1-.808.198 9 9 0 0 1-.694.107l-.156.017q-.147.014-.296.024l-.152.01q-.216.01-.437.011-.22 0-.438-.012-.076-.003-.152-.01a9 9 0 0 1-.296-.023l-.156-.017a9 9 0 0 1-1.304-.248l-.198-.057q-.106-.03-.21-.064-.102-.033-.2-.068-.096-.032-.19-.066-.1-.038-.197-.079-.104-.04-.206-.084l-.108-.048a9 9 0 0 1-.375-.177q-.126-.062-.25-.128l-.107-.06a9 9 0 0 1-.25-.145l-.133-.082a9 9 0 0 1-.224-.145l-.13-.089-.207-.148-.136-.102a9 9 0 0 1-.33-.265l-.078-.065-.032-.03A9 9 0 0 1 10 1m0 14c-1.533 0-2.958.46-4.146 1.249q.132.087.265.169a7.5 7.5 0 0 0 1.954.83l.113.03q.11.027.221.05l.154.032a8 8 0 0 0 .614.093l.073.009q.15.014.302.022.039.004.077.006.186.01.373.01.225-.001.45-.016.15-.008.301-.022l.073-.009a7 7 0 0 0 .614-.093q.078-.015.154-.032.111-.023.221-.05l.113-.03a7 7 0 0 0 .556-.17 7.4 7.4 0 0 0 1.663-.829A7.46 7.46 0 0 0 10 15m0-12.5a7.5 7.5 0 0 0-5.346 12.76A8.96 8.96 0 0 1 10 13.5c2 0 3.85.655 5.344 1.76A7.5 7.5 0 0 0 10 2.5m0 3a3.5 3.5 0 1 1 0 7 3.5 3.5 0 0 1 0-7M10 7a2 2 0 1 0 0 4 2 2 0 0 0 0-4"/></svg>
